X: 1
T: Gan Ainm
M: 4/4
L: 1/8
R: reel
K: Dmaj
D2 (DB,D^C) (B,A,)|D2 (DB,D^C) (B,A,)|D2 (FAG2) (GF|D2) (DB,D^C) (B,A,)|
D2 (FAG2) (GF|D2) (DB,D^C) B,D|E4 (EGEF)|(D2B,2) (B,2A,^C)|
E4 (EGEF)|(D2B,2) (B,2A,^C)|(D8|D2) (DB,D^C) (B,A,)|
D2 (DB,D^C) (B,A,)|D2 (FAG2) (GF)|D2 (DB,D^C) (B,A,)|D2 (FAG2) (GF)|
D2 (DB,D^C) B,D|E4 (EGEF)|(D2B,2) (B,2A,^C)|E4 (EGEF)|
(D2B,2) (B,2A,^C)|D4 (F>D) (FD)|d2 (dBdc) (BA)|d2 (dBdc) (BA)|
d2 (fag2) (gf)|d2 (dBdc) (BA)|d2 (fag2) (gf)|d2 (dBdc) (BA)|
(FD) f4 (fe)|d2 (dBdc) (BA)|(FD) f4 (fe)|d2 (dBdc) Bd|
e4 (e^gef)|(d2B2) (B2Ac)|e4 (e^gef)|(d2B2) (B2Ac)|
e4 (e^g)e(f|d2)B2 (Bcde)|f4 (ba^gf)|(edcB) (Bcde)|
f4 (ba^gf)|(edcB) (BecA)|D4 ||
